X:13
T:Merry Blacksmith, The
R:reel
N:Learned from David Lindquist
D:Highland Sun: Celtic Crossover
Z:Michael Abraham Shulman
M:4/4
L:1/8
K:D
A2|:"D"d2dA BAFA|dcdA BAFA|ABde f2ed|"G"Beed egfe|
"D"d2dA BAFA|dcdA BAFA|ABde fdec|1 "A"dBAF "D"D2A2:|2 "A"dBAF "D"D2fg|
|:"D"a2ag f2fe|d2dA BAFA|ABde f2ed|"G"Beed "A"egfe|
"D"a2ag f2fe|d2dA BAFA|"G"ABde fdec|1 "A"dBAF "D"D2fg:|2 "A"dBAF "D"D4|
